src/icons/logo-be.svg

<svg width="63" height="37" viewBox="0 0 63 37" fill="none" xmlns="http://www.w3.org/2000/svg">
<path d="M23.3124 12.7903H11.4262L1.5 24.5064L11.4262 36H23.5653L43.5443 12.5678H49.3609L42.4694 1H36.5896L14.9036 26.286L13.323 24.4322L23.3124 12.7903Z" fill="#03ACEF" stroke="#03ACEF"/>
<path d="M51.9531 12.5678L45.1249 1.07416H47.97L54.735 12.5678H51.9531Z" fill="#03ACEF"/>
<path d="M58.402 12.5678H57.2007L50.4357 1.07416H51.5738L58.402 12.5678Z" fill="#03ACEF"/>
<path d="M61.5 12.5678H60.8045L53.9763 1.07416H54.735L61.5 12.5678Z" fill="#03ACEF"/>
<path d="M51.9531 12.5678L45.1249 1.07416H47.97L54.735 12.5678H51.9531Z" stroke="#03ACEF"/>
<path d="M58.402 12.5678H57.2007L50.4357 1.07416H51.5738L58.402 12.5678Z" stroke="#03ACEF"/>
<path d="M61.5 12.5678H60.8045L53.9763 1.07416H54.735L61.5 12.5678Z" stroke="#03ACEF"/>
</svg>

<svg xmlns="http://www.w3.org/2000/svg" width="63" height="37" fill="none"><path fill="#03ACEF" stroke="#03ACEF" d="M23.312 12.79H11.426L1.5 24.506 11.426 36h12.14l19.978-23.432h5.817L42.469 1h-5.88L14.905 26.286l-1.581-1.854z"/><path fill="#03ACEF" d="M51.953 12.568 45.125 1.074h2.845l6.765 11.494zM58.402 12.568h-1.201L50.436 1.074h1.138zM61.5 12.568h-.696L53.976 1.074h.759z"/><path stroke="#03ACEF" d="M51.953 12.568 45.125 1.074h2.845l6.765 11.494zM58.402 12.568h-1.201L50.436 1.074h1.138zM61.5 12.568h-.696L53.976 1.074h.759z"/></svg>
